X:1
T:Messa a 4 (complete) - Grossi
T:#
%%score [ 1 2 3 4 ]
L:1/8
Q:1/4=100
M:2/2
K:C
V:1 treble nm="Soprano" snm="Soprano"
V:2 treble nm="Alto" snm="Alto"
V:3 treble-8 nm="Tenor" snm="Tenor"
V:4 bass nm="Bass" snm="Bass"
V:1
"^Messa a quattro voci""^Kyrie""^Giovanni Grossi\n(1615-1684)" ^G6 G2 | A2 B2 c2 A2 | B2 ^F4 F2 | %3
w: Ky- ri-|e e- le- i-|son, Ky- ri-|
 ^G2 G4 G2 | A2 B2 c2 d2 | B2 c4 c2 | A4 G4 |[M:2/2] A6 A2 | ^G8 | (E4 G4) | A4 B2 B2 | B2 B2 c4 | %12
w: e, Ky- ri-|e e- le- i-|son, Ky- ri-|e e-|le- i-|son,|e\- *|le- i- son,|Ky- ri- e|
 B4 A3 A | !fermata!^G8 || c4 B4- | B2 B2 B2 A2 | B2 ^G2 A2 B2 | (c2 B2 A3) A | ^G2 e2 d2 c2 | %19
w: e- le- i-|son.|Chri- ste|* e- le- i-|son, Chri- ste e-|le\- * * i-|son, Chri- ste e-|
 c2 B2 c4- | c2 B2 A2 G2 | B3 B B2 ^G2 | (A2 B2 A3) A | !fermata!^G8 || ^G6 G2 | A2 B2 c2 A2 | %26
w: le- i- son,|* Chri- ste e-|le- i- son, e-|le\- * * i-|son.|Ky- ri-|e e- le- i-|
 B2 ^F4 F2 | ^G2 G4 G2 | A2 B2 c2 d2 | B2 c4 c2 | A4 G4 | A6 A2 | ^G8 | (E4 G4) | A4 B2 B2 | %35
w: son, Ky- ri-|e, Ky- ri-|e e- le- i-|son, Ky- ri-|e e-|le- i-|son,|e\- *|le- i- son,|
[Q:1/4=98] B2[Q:1/4=96] B2[Q:1/4=93] c4 |[Q:1/4=89] B4[Q:1/4=86] A3[Q:1/4=84] A | %37
w: Ky- ri- e|e- le- i-|
[Q:1/4=84] !fermata!^G8 |][M:2/2][Q:1/4=140][Q:1/4=140][Q:1/4=140][Q:1/4=140] z26 || %39
w: son.||
[M:2/2][Q:1/4=100][Q:1/4=100][Q:1/4=100][Q:1/4=100] ^G6 G2 | A6 A2 | (B3 A G2) G2 | A6 A2 | %43
w: Et in|ter- ra|pax * * ho-|mi- ni-|
 ^G2 G4 G2 | (A4 B2) c2 | (c4 B4) | B2 B2 B2 A2 | (B2 d2 c2 B2 | A4) z4 | c4 B4 | A2 A4 ^G2 | %51
w: bus bo- nae|vo\- * lun-|ta\- *|tis. Lau- da- mus|te, * * *||be- ne-|di- ci- mus|
 (A6 B2 | c4) z4 | z8 | z4 z2 A2 | (c2 B2) A2 (G2 | AB c4) B2 | c2 G4 G2 | G2 (G4 ^FE | ^F3) F G4 | %60
w: te, *|||glo-|ri\- * fi- ca\-|* * * mus|te. Gra- ti-|as a\- * *|* gi- mus|
 A8 | G2 B4 B2 | (G2 B2 A2) G2 | ^F2 B3 A (A2- | A2 ^G2) A4 | z8 | z2 D4 D2 | (E3 D EFGA | B4 A4 | %69
w: ti-|bi prop- ter|ma\- * * gnam|glo- ri- am tu\-|* * am;||De- us|Pa\- * * * * *|* ter|
 (d4 c3 B | cd e3 dcB) | A3 A ^G2 G2- | G ^G G2 A3 B | G2 G2 G3 G | G2 G4 G2 | EC c3 B A2) | %76
w: om\- * *||ni- po- tens. Do\-|* mi- ne Fi- li|u- ni- ge- ni-|te Je- su|Chri\- * * * *|
 B2 B3 B B2 | c2 B2 A2 G2 | (A2 Bc d4) | c2[Q:1/4=99] A3[Q:1/4=97] A[Q:1/4=97] G2 |[Q:1/4=94] (c8 | %81
w: ste; Do- mi- ne|De- us, A- gnus|De\- * * *|i, Fi- li- us|Pa\-|
[Q:1/4=90] A8) |[Q:1/4=88] !fermata!^G8 ||[Q:1/4=93][Q:1/4=93][Q:1/4=93][Q:1/4=93] z4 B4- | %84
w: |tris.|Qui|
 B4 G4- | G4 E4- | E2 E2 E2 E2 | (F2 G2) A2 A2- | A2 G2 ^F2 B2 | (A2 ^F2 G4) | ^F4 B2 G2- | %91
w: * tol\-|* lis|* pec- ca- ta|mun\- * di, mi\-|* se- re- re|no\- * *|bis; qui tol\-|
 G2 E2 E2 A2- | A2 ^F2 (B3 A | G6 A2) | B2 E4 E2 | E4 A4- | A2 (d4 c2) | B2 A2 B2 d2 | (G6 AG | %99
w: * lis pec- ca\-|* ta mun\- *||di, su- sci-|pe de\-|* pre\- *|ca- ti- o- nem|no\- * *|
 AB c2 B2 c2- | c2 B2) c4- | c4 z4 | z8 | z8 | z4 B3 B | c2 A2 B4 | A2[Q:1/4=100] A4 A2 | A6 A2 | %108
w: |* * stram;||||mi- se-|re- re no-|bis. Quo- ni-|am tu|
[Q:1/4=100][Q:1/4=100][Q:1/4=100][Q:1/4=100] B4 B4 | z2 G2 A2 B2 | (c3 B A2 G2 | F4) E2 A2 | %112
w: so- lus,|tu- so- lus|san\- * * *|* ctus, tu|
 A2 ^G2 (A3 B | ^G2 A4) G2 | A2 A2 A4 | B2 c2 d3 d | c2 A4 B2 | (c3 B A4) | ^G8 | (B2 c2) A2 B2 | %120
w: so- lus Do\- *|* * mi-|nus, tu so-|lus Al- tis- si-|mus, Je- su|Chri\- * *|ste,|cum * San- cto|
 G2 A2 ^F2 G2 | EE A2 D2 G2 | (G^F F2) E2 (ed | c4 B4 | A4 G4 | F2 E2 FDdc | B4) A4 | (d2 c4 B2- | %128
w: Spi- ri- tu, in|glo- ri- a De- i|Pa\- * * tris, A\- *||||* men,|A\- * *|
 B2 A4) G2 | (e4 d2 B2) | c4 (B2 ^c2) | d2 BB c2 A2 | %132
w: * * men,|A\- * *|men, in *|glo- ri- a De- i|
[Q:1/4=98] B2[Q:1/4=96] B2[Q:1/4=95] (c[Q:1/4=94]d[Q:1/4=92] e2- | %133
w: Pa- tris, A\- * *|
[Q:1/4=91] e[Q:1/4=90]d[Q:1/4=89]c[Q:1/4=88]B[Q:1/4=85] A4) |[Q:1/4=84] !fermata!^G8 || %135
w: |men.|
[M:2/2][Q:1/4=84]"^Kyrie eleison post Gloria"[Q:1/4=84][Q:1/4=84][Q:1/4=84] z8 | z8 | z8 | z4 (B4 | %139
w: |||Ky\-|
 c3) c B2 e2 | c2 d2 e2 B2 | A3 A G2 (c2- | c2 B4) A2 | B2 B2 G2 A2 | %144
w: * ri- e e-|le- i- son, e-|le- i- son, Ky\-|* * ri-|e e- le- i-|
[Q:1/4=82] (B3[Q:1/4=81] A[Q:1/4=79] G4) |[Q:1/4=77] (A2[Q:1/4=75] B2)[Q:1/4=73] c3[Q:1/4=72] c | %146
w: son, * *|e\- * le- i-|
[Q:1/4=72] !fermata!B8 |][M:2/2][Q:1/4=140][Q:1/4=140][Q:1/4=140][Q:1/4=140] z16 || %148
w: son.||
[M:2/2][Q:1/4=108][Q:1/4=108][Q:1/4=108][Q:1/4=108] B8 | B6 B2 | B2 B2 c4 | B6 ^G2 | A2 B2 c4 | %153
w: Pa-|ter om-|ni- po- ten-|tem, fa-|cto- rem coe-|
 B2 A2 (A2 ^G2) | A2 A3 AAA | A2 ^F4 F2 | G2 G3 GGG | G6 G2 | G2 B3 BBB | c3 c B2 A2- | A2 ^G2 A4 | %161
w: li et ter\- *|rae, vi- si- bi- li-|um om- ni-|um et in- vi- si-|bi- li-|um; et in u- num|Do- mi- num Je\-|* sum Chri-|
 ^G2 G3 G G2 | (AGFE F3) F | FG A4 ^G2 | A2 A3 AAA | G4 G2 c2- | cccc B3 B | A2 A4 A2 | %168
w: stum, Fi- li- um|De\- * * * * i|u- ni- ge- ni-|tum et ex Pa- tre|na- tum, na\-|* tum an- te o- mni-|a sae- cu-|
 ^G2 B2 B2 B2 | c4 B2 B2 | A2 G2 ^F3 F | E2 G4 G2 | G4 G4 | A2 A4 A2 | (A6 B2 | c2 B2 A4) | %176
w: la. De- um de|De- o, lu-|men de lu- mi-|ne, De- um|ve- rum|de De- o|ve\- *||
 ^G2 G4 G2 | A2 B2 A4 | ^G2 B4 B2 | c2 B2 A2 c2 | (B2 A4 ^G2) | A4 z4 | z8 | z8 | z2 E2 E4 | %185
w: ro; ge- ni-|tum non fa-|ctum, con- sub-|stan- ti- a- lem|Pa\- * *|tri;|||Qui pro-|
 E2 E2 F3 F | E2 E2 F2 G2 | A4 G4 | (A2 B2 c3 B) | (AB c4 B2) | c6 c2 | c4 c2 B2 | (c2 d2 cd e2- | %193
w: pter nos ho- mi-|nes et pro- pter|no- stram|sa\- * * *|lu\- * * *|tem de-|scen- dit de|coe\- * * * *|
 edcB A4) | !fermata!^G8 || ^G8 | A6 B2 | A6 A2 | ^G8 | z2 c2 c4 | B2 c2 A4 | ^G6 E2- | %202
w: |lis.|Et|in- car-|na- tus|est|de Spi-|ri- tu San-|cto ex|
 E2 E2 E2 E2 | ^F6 F2 | ^F4 F4 | (G3 A B2) B2 | (c3 B A2 B2 | c4) A4 | ^G8 || z8 | E4 ^F4 | %211
w: * Ma- ri- a|Vir- gi-|ne et|ho\- * * mo|fa\- * * *|* ctus|est.||Cru- ci-|
 G4 ^F4 | G3 ^F E2 G2 | ^F4 E4 | z8 | z4 z2 B2 | c2 B2 A2 c2 | (B2 A2 d4) | c2 A4 ^G2 | %219
w: fi- xus|e- ti- am pro|no- bis||sub|Pon- ti- o Pi-|la\- * *|to pas- sus|
 (A3 G F2) E2 | (D3 E) F4 |[Q:1/4=107] E2[Q:1/4=105] c2[Q:1/4=104] B2[Q:1/4=102] (e2- | %222
w: et * * se-|pul\- * tus,|pas- sus et se\-|
[Q:1/4=101] e2[Q:1/4=99] d2)[Q:1/4=98] c2[Q:1/4=96] A2 |[Q:1/4=96] !fermata!^G8 || %224
w: * * pul- tus|est.|
[M:3/2][Q:1/4=96][Q:1/4=216][Q:1/4=96][Q:1/4=96][Q:1/4=96] ^G4 G4 G4 | A8 A4 | B6 A2 B4 | %227
w: Et re- sur-|re- xit|ter- ti- a|
 c4 c4 G4 | A4 B4 c4 | (c8 B4) | c12 | z4 e4 d4 | c4 c4 c4 | B4 B4 z4 | %234
w: di- e se-|cun- dum scri-|ptu\- *|ras,|et a-|scen- dit in|coe- lum;|
[M:3/2][Q:1/4=216][Q:1/4=216][Q:1/4=216][Q:1/4=216] A4 A4 G4 | F6 F2 E4 | e4 e4 d4 | c6 c2 B2 B2 | %238
w: se- det ad|de- xte- ram,|se- det ad|de- xte- ram, ad|
 A6 A2 A4 | (A8 ^G4) | A8 E4 | ^F6 G2 A4 | D4 D4 D4 | E8 F4 | G6 G2 G4 | A6 A2 A2 G2 | A4 A4 z4 | %247
w: de- xte- ram|Pa\- *|tris; et|i- te- rum|ven- tu- rus|est cum|glo- ri- a|ju- di- ca- re|vi- vos,|
 B6 B2 B2 A2 | ^G4 G4 A4- | A4 ^F6 F2 | ^G4 G4 G4 | A4 A4 B4 | c4 c4 c4 | (A4 B4) c4 | (G4 A8) | %255
w: ju- di- ca- re|vi- vos et|* mor- tu-|os, cu- jus|re- gni non|e- rit, non|e\- * rit|fi\- *|
 ^G8 A4 | A8 A4 | (A8 ^G4) | A12 ||[M:2/2][Q:1/4=108][Q:1/4=108][Q:1/4=108][Q:1/4=108] E2 F2 G3 F | %260
w: nis, non|e- rit|fi\- *|nis.|Et in Spi- ri-|
 G2 (A3 G A2 | B3) B c2 A2 | G4 z4 | z8 | z8 |[M:2/2] z2 c4 B2 | c2 A2 B2 (c2- | c2 B2 A4) | %268
w: tum San\- * *|* ctum Do- mi-|num|||Fi- li-|o- que pro- ce\-||
 G2 B4 B2 | c4 B2 c2 | A2 B2 G2 G2- | G2 A4 (B2- | B2 c3 B) A2 | G2 G2 G2 G2 | G2 A4 B2- | %275
w: dit. Qui cum|Pa- tre et|Fi- li- o si\-|* mul a\-|* * * do-|ra- tur et con-|glo- ri- fi\-|
 B2 (c3 B A2) | ^G2 G4 A2 | A2 ^G2 A2 A2- | A2 B2 (c2 F2) | G2 G2 G2 G2 | A4 B2 B2 | (c3 B AGFE | %282
w: * ca\- * *|tur, qui lo-|cu- tus est per|* Pro- phe\- *|tas; et u- nam|San- ctam Ca-|tho\- * * * * *|
 D2) D2 G4 | z2 A2 A2 ^G2 | A3 B c2 (B2- | BA) (A4 ^G2 | A4 B3) B | A2 A2 A3 A | A2 A2 G3 G | %289
w: * li- cam|et A- po-|sto- li- cam Ec\-|* * cle\- *|* * si-|am. Con- fi- te-|or, con- fi- te-|
 G2 G2 F2 E2 | E2 D2 E2 ^G2- | G^GGG A2 A2 | G3 G G4 | G8 | z2 e4 d2 | e4 d4 | z2 e4 d2 | %297
w: or u- num Ba-|pti- * sma in|* re- mis- si- o- nem|pec- ca- to-|rum,|et ex-|pe- cto|re- sur-|
 e3 d (c3 B | cBcd c2 B2) | A2 A4 ^G2 | A3 A B2 d2 | c6 B2 | (^G2 A4 G2) | A4 z4 | z8 | z8 | %306
w: re- cti- o\- *||nem, re- sur-|re- cti- o- nem|mor- tu-|o\- * *|rum|||
 z2 B2 c4 | B2 G2 A2 B2 | (EFGA BcdB | c3) c B2 (e2 | A2 d2 G3 A | BcdB cG c2- | c2 B2) c2 (G2- | %313
w: et vi-|tam ven- tu- ri|sae\- * * * * * * *|* cu- li. A\-|||* * men, A\-|
 GABG c2 f2 | e4 d4 |[Q:1/4=107] c3[Q:1/4=106] B[Q:1/4=105] A2[Q:1/4=104] G2 | %316
w: |||
[Q:1/4=103] G[Q:1/4=102]E[Q:1/4=102]F[Q:1/4=101]G[Q:1/4=100] A3[Q:1/4=99] B | %317
w: |
[Q:1/4=99] c2[Q:1/4=98] B2[Q:1/4=97] c2[Q:1/4=96] B2 |[Q:1/4=93] A8) |[Q:1/4=92] !fermata!^G8 |] %320
w: ||men.|
[M:2/2]"^Sanctus" (E3 F GEFG | A2 GF E3 F | G3 A BGAB | c3 B A4 | ^G2 A4 G2) | A2 E3 E E2 | %326
w: San\- * * * * *|||||ctus Do- mi- nus|
[M:3/4] F4 E2 | A3 A A2 | A4 A2 | (A3 G G2- |[M:2/2] G2) ^F2 G2 B2- | B2 B2 c4 | B2 B2 (A3 B) | %333
w: De- us|Do- mi- nus|De- us|Sa\- * *|* ba- oth. Ple\-|* ni sunt|coe- li et *|
[M:2/2] (c2 B2 A4) | ^G2 G3 G G2 |[M:3/4] A4 ^G2 | B3 B B2 | c4 B2 | B2 c2 c2 |[M:2/2] BB (c3 Bcd | %340
w: ter\- * *|ra glo- ri- a|tu- a,|glo- ri- a|tu- a.|Ho- san- na|in ex- cel\- * * *|
 e4 d4) | c2 c4 B2 | (A2 G2 ^F3 G | A8) | ^G8 |][M:2/2]"^Benedictus" A4 B4 | c4 B2 B2 | A4 ^G2 A2 | %348
w: |sis in ex-|cel\- * * *||sis.|Be- ne-|di- ctus qui|ve- nit in|
 A2 ^G2 A2 (A2- | A2 B2 c2) A2 | ^G2 B2 c2 c2 | B2 c2 (ABcd | e4) d4 | c6 B2 | (A2 G2 ^F3 G | A8) | %356
w: no- mi- ne Do\-|* * * mi-|ni. Ho- san- na|in ex- cel\- * * *|* sis|in ex-|cel\- * * *||
 ^G8 |][M:2/2]"^Agnus Dei" z8 | z8 | z8 | A6 G2 | (c4 B4) | A2 A2 A4 | A2 G2 F2 E2 | %364
w: sis.||||A- gnus|De\- *|i, qui tol-|lis pec- ca- ta|
[M:2/2] (E2 D2) E2 ^G2- | G2 A2 B3 B | A4 ^G2 G2- | G2 A2 B4 | B2 B2 c4 | B2 d2 cB (B2- | %370
w: mun\- * di, mi\-|* se- re- re|no- bis. A\-|* gnus De-|i, qui tol-|lis pec- ca- ta mun\-|
 B2 A2) B2 ^F2- | F2 ^F2 G4- | G2 G2 A2 B2 |[Q:1/4=106] (c4[Q:1/4=104] B2[Q:1/4=103] A2- | %374
w: * * di do\-|* na no\-|* bis, do- na|no\- * *|
[Q:1/4=101] A2[Q:1/4=100] B2[Q:1/4=99] c2)[Q:1/4=97] B2 |[Q:1/4=96] (c3[Q:1/4=94] B[Q:1/4=93] A4) | %376
w: * * * bis|pa\- * *|
[Q:1/4=92] ^G8 |] %377
w: cem.|
V:2
 E6 E2 | E2 E2 E3 E | ^D2 D4 D2 | E2 E4 E2 | E2 E2 E2 F2 | D2 G4 G2 | (F4 E2) E2 | %7
w: Ky- ri-|e e- le- i-|son, Ky- ri-|e, Ky- ri-|e e- le- i-|son, Ky- ri-|e * e-|
[M:2/2] (E2 DC D3) D | E8- | E2 E4 E2 | C2 C2 B,3 B, | E6 E2 | E6 E2 | !fermata!E8 || z2 A2 G4- | %15
w: le\- * * * i-|son,|* Ky- ri-|e e- le- i-|son, e-|le- i-|son.|Chri- ste|
 G2 ^F2 G2 E2 | D2 E2 E3 E | E6 D2 | E2 G2 F2 E2 | D3 D E2 G2- | G2 G2 E2 E2- | E2 ^D2 E2 E2 | %22
w: * e- le- i-|son, Chri- ste e-|le- i-|son, Chri- ste e-|le- i- son, Chri\-|* ste e- le\-|* i- son, e-|
 (FE E4) D2 | !fermata!E8 || E6 E2 | E2 E2 E3 E | ^D2 D4 D2 | E2 E4 E2 | E2 E2 E2 F2 | D2 G4 G2 | %30
w: le\- * * i-|son.|Ky- ri-|e e- le- i-|son, Ky- ri-|e, Ky- ri-|e e- le- i-|son, Ky- ri-|
 (F4 E2) E2 | (E2 DC D3) D | (E8 | E2) E4 E2 | C2 C2 B,3 B, | E6 E2 | E6 E2 | !fermata!E8 |] %38
w: e * e-|le\- * * * i-|son,|* Ky- ri-|e e- le- i-|son, e-|le- i-|son.|
[M:2/2] z26 ||[M:2/2] z2 E6- | E2 E2 (F3 E | D2) D2 (E3 D | C2) C2 F3 F | E6 (E2- | EDEF G3) G | %45
w: |Et|* in ter\- *|* ra pax *|* ho- mi- ni-|bus bo\-|* * * * * nae|
 G2 A2 ^F4 | E2 G2 ^F2 E2 | D4 (E4 | ^F4) (E2 D2) | (C2 E4) E2 | (!courtesy!=F4 E4) | E8- | %52
w: vo- lun- ta-|tis. Lau- da- mus|te, be\-|* ne\- *|di\- * ci-|mus *|te,|
 E4 E2 E2 | (E2 F3 E E2- | E2 DC D2) D2 | E2 E2 C4- | C2 C2 F2 D2 | E2 (E4 DC | D3) D D4 | %59
w: * a- do-|ra\- * * *|* * * * mus|te, glo- ri\-|* fi- ca- mus|te. Gra\- * *|* ti- as|
 D2 A,2 E2 (E2- | E2 DC D4) | (E3 F G4- | G2) z2 z4 | z4 z2 E2- | EE D2 C3 A, | B,3 C (DA, D2- | %66
w: a- gi- mus ti\-||bi; * *||Do\-|* mi- ne De- us,|Rex coe- le\- * *|
 DC C4 B,2) | C2 E4 E2 | (DCDE F4- | F4 E3 D) | C2 B,2 (CD E2- | E2) D2 E4 | E3 E E2 FF | %73
w: |stis, De- us|Pa\- * * * *||ter om- ni\- * *|* po- tens.|Do- mi- ne Fi- li|
 E2 E2 D3 D | E2 E4 D2 | (C3 D ED C2) | B,4 z2 E2- | E E E2 F2 E2 | D2 C2 B,4 | A,4 z2 E2- | %80
w: u- ni- ge- ni-|te Je- su|Chri\- * * * *|ste; Do\-|* mi- ne De- us,|A- gnus De-|i, Fi\-|
 ED C2 (D2 E2 | FGAG F4) | !fermata!E8 || z8 | z4 E4- | E4 C4- | C4 A,3 B, | (CD) E4 D2 | %88
w: * li- us Pa\- *||tris.||Qui|* tol\-|* lis pec-|ca\- * ta mun-|
 E4 ^D2 E2 | ^C2 ^D2 (EB, E2- | E2 ^D2) E4 | E4 C4 | A,2 A,2 D2 B,2 | (E3 D C4) | B,2 B,4 B,2 | %95
w: di, mi- se-|re- re no\- * *|* * bis;|qui tol-|lis pec- ca- ta|mun\- * *|di, su- sci-|
 ^C2 E4 E2 | ^F4 z4 | G6 F2 | E2 D2 (C3 B, | CDEC D2) E2 | D4 E4- | E2 E2 G4 | F2 D2 E2 F2 | %103
w: pe, su- sci-|pe|de- pre-|ca- ti- o\- *|* * * * * nem|no- stram;|* Qui se-|des ad de- xte-|
 G2 (A4 ^G2) | A4 z4 | E6 E2 | E8 | ^F8 | (D2 E2 ^F2 G2- | G^F E2 F2) G2 | (A3 G F2 E2) | %111
w: ram Pa\- *|tris.|Quo- ni-|am|tu|so\- * * *|* * * * lus|san\- * * *|
 D4 (C3 D) | E2 E2 (C2 F2 | E6) E2 | E2 E2 ^F3 F | ^G2 A4 G2 | A2 (E2 F2) E2 | (E2 DC D4) | E6 B2 | %119
w: ctus, tu *|so- lus Do\- *|* mi-|nus, tu so- lus|Al- tis- si-|mus, Je\- * su|Chri\- * * *|ste, cum|
 G2 A2 ^F2 G2 | E2 ^F2 DD E2 | ^C2 D2 (B,2 E2- | E2 ^D2) E2 A,2- | E2 C2 D2 B,2 | C2 A,2 B,2 G,G, | %125
w: San- cto Spi- ri-|tu, in glo- ri- a|De- i Pa\- *|* * tris, cum|San- cto Spi- ri-|tu, in glo- ri- a|
 A,4 A,2 (A,2- | A,2 ^G,2) A,2 (A2 | G4 F4 | E4 D4 | C4 B,4) | A,2 (A2 G4 | F4 E4 | D4 C2 B,2 | %133
w: De- i Pa\-|* * tris, A\-||||men, A\- *|||
 A,B,CD E4) | !fermata!E8 ||[M:2/2] z8 | z8 | (E4 F3) F | E2 F2 D2 G2 | E2 (E3 DCB,) | %140
w: |men.|||Ky\- * ri-|e e- le- i-|son e\- * * *|
 (A,2 A4) G2- | G2 F2 (E4 | F3) F E2 E2 | D2 G2 E2 E2 | (^F2 G3 FED | E6) E2 | !fermata!E8 |] %147
w: le\- * i\-|* son, Ky\-|* ri- e e-|le- i- son, e-|le\- * * * *|* i-|son.|
[M:2/2] z16 ||[M:2/2] E8 | E6 E2 | ^F2 E2 E4 | E6 E2 | E2 G2 G4 | G2 F2 E4 | E2 E3 EEE | %155
w: |Pa-|ter om-|ni- po- ten-|tem, fa-|cto- rem coe-|li et ter-|rae, vi- si- bi- li-|
 ^F2 D4 D2 | D2 D3 DDD | (EDEF E3) E | D2 D3 GGG | G3 G G2 E2- | E2 E2 (C2 D2) | E2 E3 E E2 | %162
w: um om- ni-|um et in- vi- si-|bi\- * * * * li-|um; et in u- num|Do- mi- num Je\-|* sum Chri\- *|stum, Fi- li- um|
 E4 D2 D2- | D2 C2 E3 E | E2 E3 EEE | E4 E2 G2- | GGGG G3 G | E2 E4 D2 | E2 ^G2 ^F2 E2 | A4 G2 G2 | %170
w: De- i u\-|* ni- ge- ni-|tum et ex Pa- tre|na- tum, na\-|* tum an- te o- mni-|a sae- cu-|la. De- um de|De- o, lu-|
 ^F2 E2 E2 ^D2 | E2 E3 E (E2- | E2 DC D2) D2 | F2 F3 F (F2- | F2 ED E4- | E2 DC D4) | E2 E4 E2 | %177
w: men de lu- mi-|ne, De- um ve\-|* * * * rum|de De- o ve\-|||ro; ge- ni-|
 E2 E2 E4 | E6 E2- | E2 E2 F2 E2 | D2 C2 B,4 | A,2 A4 D2 | E3 D C2 (F2- | FE ED/C/ D3) D | %184
w: tum non fa-|ctum, con\-|* sub- stan- ti-|a- lem Pa-|tri; Per quem|o- mni- a fa\-|* * * * * * cta|
 ^C2 C2 C4 | B,2 ^C2 D3 D | ^C2 C2 D2 E2 | F4 E4- | E2 D2 (C4 | D2 E2 F4- | F2 ED) E4- | %191
w: sunt. Qui pro-|pter nos ho- mi-|nes et pro- pter|no- stram|* sa- lu\-||* * * tem|
 E2 E2 E2 F2 | (E2 D2) (E3 D | CB,CD E4) | !fermata!E8 || E8 | E6 E2 | E4 F4 | E8 | z2 G2 G3 G | %200
w: * de- scen- dit|de * coe\- *||lis.|Et|in- car-|na- tus|est|de Spi- ri-|
 G2 (E4 D2) | E2 B,4 B,2 | B,4 ^C4 | D6 D2 | D4 z4 | D4 G4 | E4 (F2 E2- | E2 DC D3) D | E8 || z8 | %210
w: tu San\- *|cto ex Ma-|ri- a|Vir- gi-|ne|et ho-|mo fa\- *|* * * * ctus|est.||
 z2 E4 ^D2 | E4 B,4 | z4 z2 E2- | E2 ^D2 E2 (G2- | G^F E2) (D2 C2 | D2 E2 D4) | C2 E2 F2 E2 | %217
w: Cru- ci-|fi- xus|e\-|* ti- am pro|* * * no\- *||bis sub Pon- ti-|
 D2 C2 B,4 | A,4 z2 E2- | E2 C2 D2 E2 | (F3 E D2) C2 | B,2 (A,4 ^G,2) | (A,3 B, C2) D2 | %223
w: o Pi- la-|to; pas\-|* sus et se-|pul\- * * tus|et se\- *|pul- * * tus|
 !fermata!E8 ||[M:3/2] E4 E4 E4 | E8 E4 | G6 G2 G4 | G4 G4 G4 | F4 F4 E4 | G12 | G4 C4 D4 | %231
w: est.|Et re- sur-|re- xit|ter- ti- a|di- e se-|cun- dum scri-|ptu-|ras, et a-|
 E4 E4 F4 | G4 G4 z4 | D4 D4 E4 |[M:3/2] F6 F2 G2 G2 | A6 A2 G4 | E4 E4 z4 | A,4 C4 D4 | %238
w: scen- dit in|coe- lum;|se- det ad|de- xte- ram, ad|de- xte- ram|Pa- tris,|se- det ad|
 E6 E2 F4- | F4 E8 | E8 E4 | A6 G2 ^F4 | z12 | G4 G4 F4 | E8 D4 | C6 C2 C4 | F6 F2 F2 E2 | %247
w: de- xte- ram|* Pa-|tris; et|i- te- rum||ven- tu- rus|est cum|glo- ri- a|ju- di- ca- re|
 D4 D4 z4 | E4 E4 F4 | E8 ^D4 | E4 E4 E4 | E4 E4 G4 | G4 G4 G4 | F8 E4- | E4 (C4 D4) | E8 E4 | %256
w: vi- vos,|vi- vos et|mor- tu-|os, cu- jus|re- gni non|e- rit non|e- rit|* fi\- *|nis non|
 F8 E4- | E4 E8 | E12 ||[M:2/2] C4 D2 E2- | ED E2 (^F3 E | ^F2) G2 G2 F2 | G4 z2 D2 | E2 G4 F2 | %264
w: e- rit|* fi-|nis.|Et in Spi\-|* ri- tum San\- *|* ctum Do- mi-|num et|vi- vi- fi-|
 E4 D2 G2- |[M:2/2] G2 ^F2 (G4 | A4) G4 | z8 | G6 G2 | G4 G2 G2 | F3 F E2 E2- | E2 E2 F4 | %272
w: can- tem, qui|* ex Pa\-|* tre||Qui cum|Pa- tre et|Fi- li- o si\-|* mul a-|
 G4 (C2 D2) | E6 E2 | E2 E2 F2 F2 | (G4 C2 D2) | E2 E4 E2 | D2 D2 E2 E2- | E2 E2 (E2 D2) | E6 C2 | %280
w: do- ra\- *|tur et|con- glo- ri- fi-|ca\- * *|tur, qui lo-|cu- tus est per|* Pro- phe\- *|tas; et|
 C2 C2 D4 | E6 E2 | F3 F E2 E2 | E2 D2 E3 D | C2 F2 E3 D | C4 z4 | z2 E2 E3 E | E2 E2 F3 F | %288
w: u- nam San-|ctam Ca-|tho- li- cam et|A- po- sto- li-|cam Ec- cle- si-|am.|Con- fi- te-|or, con- fi- te-|
 F2 F2 E3 E | E2 E2 D2 C2 | (C2 A,2) B,4 | E3 E EE F2- | FEED D4 | E2 E4 D2 | (E3 F G4- | G8 | G8 | %297
w: or, con- fi- te-|or u- num Ba-|pti\- * sma|in re- mis- si- o\-|* nem pec- ca- to-|rum, et ex-|pe\- * *|||
 G4) E2 E2- | E2 D2 E3 D | C2 A,2 B,2 E2- | E2 (D4- DE | F2 ED E2 F2) | E8 | z2 E2 F4 | %304
w: * cto re\-|* sur- re- cti-|o- nem mor- tu\-|* o\- * *||rum|et vi-|
 E2 C2 D2 E2 | (A,B,CD EFGE | F2 E3 DEF | G3 A/G/ F2 E2 | E4) D4 | C2 (A2 D2 G2 | C2 F2 E4 | %311
w: tam ven- tu- ri|sae\- * * * * * * *|||* cu-|li. A\- * *||
 D4) E2 (E2 | F2 D2 E3 F | G2 G,2 A,3 B, | C2 G2 D2 G2 | E3 D/E/ F2 D2) | E8- | E8 | E8 | %319
w: * men, A\-|||||men.|||
 !fermata!E8 |][M:2/2] z8 | (A,3 B, CA,CD | E4) E4 | (E3 D C4 | B,2 A,2 B,2 E2) | ^C2 C3 C C2 | %326
w: ||San\- * * * * *|* ctus|San\- * *||ctus Do- mi- nus|
[M:3/4] D4 ^C2 | E3 E E2 | F4 E2- | E2 D4- |[M:2/2] D2 D2 D4 | G4 G2 G2 | G2 GG (FE E2- | %333
w: De- us|Do- mi- nus|De- us|* Sa\-|* ba- oth.|Ple- ni sunt|coe- li et ter\- * *|
[M:2/2] E2 DC D4) | E2 E3 E E2 |[M:3/4] E4 E2 | ^G3 G G2 | (AE A4 | ^G2) A4 |[M:2/2] z2 E2 A2 A2 | %340
w: |ra glo- ri- a|tu- a,|glo- ri- a|tu\- * *|* a.|Ho- san- na|
 G2 E2 F4 | E2 A4 G2 | (F2 E2 D4) | E8- | E8 |][M:2/2] E6 E2 | E4 E2 E2 | (C2 D2) E2 E2 | %348
w: in ex- cel-|sis in ex-|cel\- * *|sis.||Be- ne-|di- ctus qui|ve\- * nit in|
 F2 E2 E4 | (FE E4) D2 | E8 | z2 E2 A2 A2 | G2 E2 F4 | E2 A4 G2 | F2 E2 D4 | E8- | E8 |] %357
w: no- mi- ne|Do\- * * mi-|ni.|Ho- san- na|in ex- cel-|sis, in ex-|cel\- * *|sis.||
[M:2/2] E6 C2 | (F2 E3 D C2 | D3 E FE E2- | E2 D2) E4- | E8 | z2 E2 F4 | F2 E2 D2 C2 | %364
w: A- gnus|De\- * * *||* * i,||qui tol-|lis pec- ca- ta|
[M:2/2] (C2 A,2) B,2 E2- | E2 E2 F2 E2 | E4 E2 E2- | E2 E2 G4 | G2 G2 G4 | G2 B,2 C2 D2 | %370
w: mun\- * di, mi\-|* se- re- re|no- bis. A\-|* gnus De-|i, qui tol-|lis pec- ca- ta|
 E4 ^D2 D2- | D2 ^D2 E4- | E2 E2 E4- | E8 | E8 | E8 | E8 |] %377
w: mun- di, do\-|* na no\-|* bis pa\-||||cem.|
V:3
 B6 B2 | c2 B2 A2 E2 | ^F2 B4 B2 | E2 B4 B2 | c2 B2 A3 A | G2 e4 e2 | (d3 c) (B2 c2) | %7
w: Ky- ri-|e e- le- i-|son, Ky- ri-|e, Ky- ri-|e e- le- i-|son, Ky- ri-|e * e\- *|
[M:2/2][K:treble-8] (c2 B2 A3) A | B2 B4 B2 | G2 G2 E3 E | E2 (A4 ^G^F) | ^G3 G A4 | B4 c3 c | %13
w: le\- * * i-|son, Ky- ri-|e e- le- i-|son e\- * *|le- i- son,|e- le- i-|
 !fermata!B8 || z2 A2 e4- | e2 ^d2 e2 c2 | B2 B2 c3 B | (A2 B2 c2) A2 | B2 c2 B2 G2 | %19
w: son.|Chri- ste|* e- le- i-|son, Chri- ste e-|le\- * * i-|son, Chri- ste e-|
 A2 G2 G2 e2- | e2 d2 c2 (E2 | ^F3) F ^G2 B2 | (c2 B2 c3) A | !fermata!B8 || B6 B2 | c2 B2 A2 E2 | %26
w: le- i- son, Chri\-|* ste e- le\-|* i- son, e-|le\- * * i-|son.|Ky- ri-|e e- le- i-|
 ^F2 B4 B2 | E2 B4 B2 | c2 B2 A3 A | G2 e4 e2 | (d3 c) (B2 c2) | (c2 B2 A3) A | B2 B4 B2 | %33
w: son, Ky- ri-|e, Ky- ri-|e e- le- i-|son, Ky- ri-|e * e\- *|le\- * * i-|son, Ky- ri-|
 G2 G2 E3 E | E2 (A4 ^G^F) | ^G3 G A4 | B4 c3 c | !fermata!B8 |][M:2/2] z26 || %39
w: e e- le- i-|son, e\- * *|le- i- son,|e- le- i-|son.||
[M:2/2][K:treble-8] B6 B2 | c2 c2 (d3 c | B2) B2 (c3 B | A4) d4 | B2 B4 B2 | (c4 d2 e2- | %45
w: Et in|ter- ra pax *|* ho- mi\- *|* ni-|bus bo- nae|vo\- * *|
 ee (e4 ^d2) | e4 z4 | z2 B2 A2 G2 | ^F4 G4) | A4 B4 | c2 d2 B4 | (A3 G/F/ E4) | z2 G4 G2 | %53
w: * lun- ta\- *|tis.|Lau- da- mus|te, *|be- ne-|di- ci- mus|te * * *|a- do-|
 (c4 B4 | A6) A2 | G2 G2 (AB) (c2- | cBAG) A2 F2 | G2 (c4 BA | B3) B A4 | A2 d2 B2 (c2- | %60
w: ra\- *|* mus|te, glo- ri\- * fi\-|* * * * ca- mus|te. Gra\- * *|* ti- as|a- gi- mus ti\-|
 c2 B2 A4) | B4 z2 e2- | e2 e2 c2 e2 | d3 d c4 | B4 A4 | z8 | z4 z2 G2- | G2 G2 (c4 | BABc) d2 d2 | %69
w: |bi pro\-|* pter ma- gnam|glo- ri- am|tu- am;||De\-|* us Pa\-|* * * * ter om-|
 (AGAB cBcd | e3 d cB c2- | c2) A2 B2 B2- | B B B2 ^c2 d2 | BG c4 B2 | c2 c4 B2 | (A2 GF E2 ^F2) | %76
w: ni\- * * * * * * *||* po- tens. Do\-|* mi- ne Fi- li|u- ni- ge- ni-|te Je- su|Chri\- * * * *|
 ^G8 | z8 | z8 | c3 c B4 | (A8 | c8) | !fermata!B8 || B8 | G8 | E4 G4 | (ABcd e3 d | c2) B2 A4 | %88
w: ste;|||Fi- li- us|Pa\-||tris.|Qui|tol-|lis pec-|ca\- * * * * *|* ta mun-|
 B2 B4 G2 | A2 B2 E4 | B2 B2 G4 | E2 E2 (A3 G | ^F4) G4 | (E6 ^F2) | ^G2 G4 G2 | A2 ^c4 c2 | d8- | %97
w: di, mi- se-|re- re no-|bis; qui tol-|lis pec- ca\- *|* ta|mun\- *|di, su- sci-|pe, su- sci-|pe;|
 d2 z2 z4 | z8 | z8 | z4 z2 G2 | c4 B2 G2 | A2 B2 c2 d2- | d2 c2 B4 | A2 A4 ^G2 | A2 c2 B4 | %106
w: |||Qui|se- des ad|de- xte- ram Pa\-||tris mi- se-|re- re no-|
 ^c2 c4 c2 | d6 d2 | (G2 B2 c2) d2 | (e3 d c2 B2 | A3 B) c2 c2 | (A3 B c2 BA | B4) A2 (d2- | %113
w: bis. Quo- ni-|am tu|so\- * * lus|san\- * * *|* * ctus, tu|so\- * * * *|* lus Do\-|
 d2 c2 B3) B | ^c2 c2 d4 | d2 c2 B3 B | A2 c4 B2 | A8 | B6 B2 | e2 c2 d2 B2 | c2 A2 B2 GG | %121
w: * * * mi-|nus, tu so-|lus al- tis- si-|mus, Je- su|Chri-|ste, cum|San- cto Spi- ri-|tu, in glo- ri- a|
 A2 ^F2 (G2 E2 | A2 B2) E2 (cB | cA f4 e2- | e2 d4 ^c2 | d2) e2 z4 | (B2 e2) c2 d2 | B2 c2 A2 B2 | %128
w: De- i Pa\- *|* * tris, A\- *|||* men,|cum * San- cto|Spi- ri- tu, in|
 GG A2 F2 G2 | (E2 A4 ^G2) | A2 A2 B2 GG | A2 F2 G2 E2 | (^F2 ^G2 A2 B2 | cded c4) | !fermata!B8 || %135
w: glo- ri- a De- i|Pa\- * *|tris, in glo- ri- a|De- i Pa tris,|A\- * * *||men.|
[M:2/2][K:treble-8] (B4 c3) c | B2 e2 c2 d2 | (ed) (cB/c/ dcBA/B/ | c2 A2) (BAGF | GE A4) ^G2 | %140
w: Ky\- * ri-|e e- le- i-|son, * e\- * * * * * * *|* * le\- * * *|* * * i-|
 A4 (B4 | c3 c B2 e2 | (c2 d2 edcB/c/ | dcBA/B/ c3) c | BAG^F E2) (c2- | c2 B2) A3 A | %146
w: son, Ky\-|* ri- e e-|le\- * * * * * *|* * * * * * i-|son, * * * * e\-|* * le- i-|
 !fermata!^G8 |][M:2/2] z16 ||[M:2/2][K:treble-8] ^G8 | ^G6 G2 | B2 ^G2 A4 | ^G6 B2 | c2 d2 e4 | %153
w: son.||Pa-|ter om-|ni- po- ten-|tem fa-|cto- rem coe-|
 d2 c2 B4 | ^c2 c3 ccc | d2 A4 A2 | B2 B3 BBB | (cBcd c3) c | B2 d3 ddd | e3 e d2 c2- | c2 B2 A4 | %161
w: li et ter-|rae, vi- si- bi- li-|um om- ni-|um et in- vi- si-|bi\- * * * * li-|um; et in u- num|Do- mi- num Je\-|* sum Chri-|
 B2 B3 B B2 | c4 A2 A2- | A2 A2 B3 B | c2 c3 ccc | B4 B2 e2- | eeee d3 d | c2 c4 A2 | %168
w: stum, Fi- li- um|De- i u\-|* ni- ge- ni-|tum et ex Pa- tre|na- tum, na\-|* tum an- te o- mni-|a sae- cu-|
 B2 e2 ^d2 e2 | A4 e2 e2 | A2 B2 c2 B2 | B2 c3 c (c2- | c2 BA B2) B2 | A2 d3 d (d2- | d2 cB c2 B2 | %175
w: la. De- um de|De- o, lu-|men de lu- mi-|ne, De- um ve\-|* * * * rum|de De- o ve\-||
 A8) | B2 B4 B2 | c2 B2 (c4 | B3 A) ^G4 | z8 | z8 | E4 ^F2 G2- | GF E2 (A3 G | FG A4) ^G2 | %184
w: |ro; ge- ni-|tum non fa\-|* * ctum,|||Per quem o\-|* mni- a fa\- *|* * * cta|
 A2 A2 A4 | ^G2 A2 D3 D | A2 A2 A2 c2 | c4 c4- | c2 B2 (G2 A2- | A2 G2 A2 d2) | G2 G2 (G4- | %191
w: sunt. Qui pro-|pter nos ho- mi-|nes et pro- pter|no- stram|* sa- lu\- *||tem de- scen\-|
 G2 A2) G2 F2 | (G8 | A3 B c4) | !fermata!B8 || B8 | c6 B2 | c4 d4 | B8 | z2 e2 e3 e | %200
w: * * dit de|coe\-||lis.|Et|in- car-|na- tus|est|de Spi- ri-|
 d2 (c3 B A2) | B2 ^G4 G2 | ^G4 A4 | A6 A2 | A2 A2 d4 | B6 (e2- | e2 d2 c2 B2 | A6) A2 | B8 || %209
w: tu San\- * *|cto ex Ma-|ri- a|Vir- gi-|ne et ho-|mo fa\-||* ctus|est.|
 E4 ^F4 | G4 ^F4 | z4 z2 B2- | B2 ^A2 B2 B2 | B4 G2 B2 | c2 B2 A2 G2 | (B2 A4 ^G2) | A8 | z8 | %218
w: Cru- ci-|fi- xus|e\-|* ti- am pro|no- bis sub|Pon- ti- o Pi-|la\- * *|to;||
 z2 c4 B2 | A4 (B2 ^c2) | (d3 c B2) A2 | (^G2 A2 B2) (c2- | c2 B2) A3 A | !fermata!B8 || %224
w: pas- sus|et se\- *|pul\- * * tus,|et * * se\-|* * pul- tus|est.|
[M:3/2][K:treble-8] B4 B4 B4 | c8 c4 | d6 c2 d4 | e4 e4 e4 | d4 d4 c4 | d12 | e12 | z12 | %232
w: Et re- sur-|re- xit|ter- ti- a|di- e se-|cun- dum scri-|ptu-|ras,||
 z4 G4 A4 | B4 B4 c4 |[M:3/2][K:treble-8] d4 d4 z4 | A4 A4 B4 | c6 c2 d2 d2 | e6 e2 d4 | c6 B2 A4 | %239
w: et a-|scen- dit in|coe- lum;|se- det ad|de- xte- ram, ad|de- xte- ram,|de- xte- ram|
 (d2 c2 B8) | ^c8 z4 | d4 d4 c4 | B8 A4 | G2 G2 G4 z4 | c6 c2 c2 B2 | A4 A4 z4 | d6 d2 d2 c2 | %247
w: Pa\- * *|tris;|ven- tu- rus|est cum|glo- ri- a|ju- di- ca- re|vi- vos|ju- di- ca- re|
 B4 B4 z4 | B4 B4 c4- | c4 B6 B2 | B4 B4 B4 | c4 c4 d4 | e4 e4 e4 | d8 G4 | (c6 B2 A4) | B8 c4 | %256
w: vi- vos,|vi- vos et|* mor- tu-|os, cu- jus|re- gni non|e- rit, non|e- rit|fi\- * *|nis, non|
 A8 c4- | c4 B8 | ^c12 ||[M:2/2][K:treble-8] A4 B2 c2- | cB c2 (d3 c | d2) e2 c2 d2 | %262
w: e- rit|* fi-|nis.|Et in Spi\-|* ri- tum San\- *|* ctum Do- mi-|
 G2 G2 B2 d2- | d2 c2 (B2 A2) | G2 c4 B2 |[M:2/2][K:treble-8] c2 A2 d2 e2 | c2 d4 G2 | (A2 B2 c4) | %268
w: num et vi- vi\-|* fi- can\- *|tem, qui ex|Pa- tre Fi- li-|o- que pro-|ce\- * *|
 B2 d4 d2 | e4 d2 e2 | c2 d2 B2 c2- | c2 c2 A2 d2 | (B2 G2 A4) | B6 c2 | c2 c2 A2 d2 | (B2 G2 A4) | %276
w: dit. Qui cum|Pa- tre et|Fi- li- o si\-|* mul a- do-|ra\- * *|tur et|con- glo- ri- fi-|ca\- * *|
 B2 B4 c2 | A2 B2 c2 c2- | c2 B2 A4 | (B4 c4) | z4 G4 | G2 G2 A4- | A2 B4 c2 | A3 A B4 | z4 z2 e2 | %285
w: tur, qui lo-|cu- tus est per|* Pro- phe-|tas; *|et|u- nam San\-|* ctam Ca-|tho- li- cam|et|
 e2 c2 e3 d | c2 c2 B3 B | c2 c2 c3 c | c2 c2 c3 c | c2 c2 A2 G2 | A4 ^G2 B2- | BBBB ^c2 d2 | %292
w: A- po sto- li-|cam Ec- cle- si-|am. Con- fi- te-|or, con- fi- te-|or u- num Ba-|pti- sma in|* re- mis- si- o- nem|
 (BG c4) B2 | c4 G4 | z2 c4 B2 | c4 G4 | z2 c4 B2 | c2 G2 (A3 G | F4) E2 e2- | e2 d2 e2 B2 | %300
w: pec\- * * ca-|to- rum,|et ex-|pe- cto|re- sur-|re- cti- o\- *|* nem, re\-|* sur- re- cti-|
 (cB A4 ^G2) | A2 (e4 d2- | d2) c2 B4 | A4 z2 A2 | c4 B2 G2 | (AGAB c3) B | A2 ^G2 A4 | z4 z2 B2 | %308
w: o\- * * *|nem mor\- *|* tu- o-|rum et|vi- tam ven-|tu\- * * * * ri|sae- cu- li,|et|
 c4 B2 G2 | A2 F2 (G3 F/G/ | A2 B2) c4 | z8 | z8 | z2 (e2 A2 d2 | G3 A BcdB | cG c4) B2 | %316
w: vi- tam ven-|tu- ri sae\- * *|* cu- li.|||A\- * *||* * * men,|
 (cGAB cB A2- | A2 ^G2 A2 B2 | c8) | !fermata!B8 |][M:2/2][K:treble-8] z8 | z8 | (E3 F GEFG | %323
w: A\- * * * * * *|||men.|||San\- * * * * *|
 ABcd e4- | e2 dc B4) | A2 A3 A A2 |[M:3/4][K:treble-8] D4 A2 | ^c3 c c2 | (dA d4) | c2 (B4 | %330
w: ||ctus Do- mi- nus|De- us|Do- mi- nus|De\- * *|us Sa\-|
[M:2/2] A2) A2 B2 d2- | d2 d2 e4 | d2 e2 (c3 B) |[M:2/2][K:treble-8] A8 | B2 B3 B B2 | %335
w: * ba- oth. Ple\-|* ni sunt|coe- li et *|ter-|ra glo- ri- a|
[M:3/4] c4 B2 | e3 e e2 | (ABcd) e2- | e4 A2 |[M:2/2] e2 e2 c2 A2 | (c3 B AGAB | cBcd e3 d | %342
w: tu- a,|glo- ri- a|tu\- * * * a.|* Ho-|san- na in ex-|cel\- * * * * *||
 c3 B A3 B | c8) | B8 |][M:2/2][K:treble-8] c4 B4 | A4 ^G2 G2 | A4 B2 c2 | B3 B A2 (c2- | %349
w: ||sis.|Be- ne-|di- ctus qui|ve- nit in|no- mi- ne Do\-|
 c2 B2 A3) A | B4 z2 A2 | e2 e2 c2 A2 | (c3 B AGAB | cBcd e3 d | c3 B A3 B | c8) | B8 |] %357
w: * * * mi-|ni. Ho-|san- na in ex-|cel\- * * * * *||||sis.|
[M:2/2][K:treble-8] z8 | z4 A4- | A2 G2 (c4- | c2 BA B4) | A4 z2 e2 | c4 c4- | c2 c2 A2 G2 | %364
w: |A\-|* gnus De\-||i, qui|tol- lis|* pec- ca- ta|
[M:2/2][K:treble-8] A4 ^G2 (B2 | c2) A2 A2 ^G2 | c4 B2 B2- | B2 c2 d4 | d2 d2 e4 | d2 G2 A2 B2 | %370
w: mun- di mi\-|* se- re- re|no- bis. A\-|* gnus De-|i, qui tol-|lis pec- ca- ta|
 c4 B4 | z2 B4 B2 | (e3 d c2) B2 | (ABcA) B2 c2- | c2 B2 A2 ^G2 | (A3 B c4) | B8 |] %377
w: mun- di,|do- na|no\- * * bis|pa\- * * * cem, do\-|* na no- bis|pa\- * *|cem.|
V:4
 E,6 E,2 | A,,2 ^G,,2 A,,2 C,2 | B,,8 | z2 E,4 E,2 | A,2 ^G,2 A,2 D,2 | G,2 C,4 C,2 | D,4 E,4 | %7
w: Ky- ri-|e e- le- i-|son,|Ky- ri-|e e- le- i-|son, Ky- ri-|e e-|
[M:2/2] F,6 F,2 | E,6 E,2- | E,2 E,2 C,2 C,2 | A,,3 A,, E,4 | (E,3 D, C,B,, A,,2- | %12
w: le- i-|son, Ky\-|* ri- e e-|le- i- son,|e\- * * * *|
 A,,2 ^G,,2) A,,3 A,, | !fermata!E,8 || z8 | z8 | z2 E,2 A,4- | A,2 ^G,2 A,2 F,2 | %18
w: * * le- i-|son.|||Chri- ste|* e- le- i-|
 E,2 C,2 D,2 E,2 | F,2 G,2 C,2 (C,2- | C,2 G,,2) A,,2 C,2 | B,,2 B,,2 E,2 E,2 | (A,2 G,2 F,3) F, | %23
w: son, Chri- ste e-|le- i- son, Chri\-|* * ste e-|le- i- son, e-|le\- * * i-|
 !fermata!E,8 || E,6 E,2 | A,,2 ^G,,2 A,,2 C,2 | B,,8 | z2 E,4 E,2 | A,2 ^G,2 A,2 D,2 | %29
w: son.|Ky- ri-|e e- le- i-|son,|Ky- ri-|e e- le- i-|
 G,2 C,4 C,2 | D,4 E,4 | F,6 F,2 | E,6 E,2- | E,2 E,2 C,2 C,2 | A,,3 A,, E,4 | %35
w: son, Ky- ri-|e e-|le- i-|son, Ky\-|* ri- e e-|le- i- son,|
 (E,3 D, C,B,, A,,2- | A,,2 ^G,,2) A,,3 A,, | !fermata!E,8 |] %38
w: e\- * * * *|* * le- i-|son.|
"^Gloria" E,2 ^F,2 A,2 A,2 ^G,2 A,2 B,2 G,2 B,2 A,2 G,2 G,4 ||[M:2/2] E,6 E,2 | (A,3 G, F,2) F,2 | %41
w: Glo\- * ri a in ex- cel- sis De\- * * o:|Et in|ter\- * * ra|
 (G,3 F, E,2) E,2 | F,4 D,4 | E,2 E,4 E,2 | (A,4 G,2) C2 | (C2 A,2 B,4) | E,2 E,2 D,2 C,2 | %47
w: pax * * ho-|mi- ni-|bus bo- nae|vo\- * lun-|ta\- * *|tis. Lau- da- mus|
 B,,2 B,,2 (C,4 | D,4 C,2) B,,2 | A,,2 A,4 G,2 | !courtesy!=F,2 D,2 E,4 | A,,2 A,4 G,2 | (C4 B,4 | %53
w: te, lau- da\-|* * mus|te be- ne-|di- ci- mus|te, a- do-|ra\- *|
 A,4 G,4 | F,6) F,2 | E,2 E,2 F,2 E,2 | (F,3 E, D,2) D,2 | C,4 G,4- | G,2 G,2 D,2 D,2- | %59
w: |* mus|te, glo- ri- fi-|ca\- * * mus|te. Gra\-|* ti- as a\-|
 D,2 D,2 E,4 | F,8 | E,8 | z8 | z8 | z4 z2 A,2- | A, A, G,2 F,3 D, | E,2 F,2 G,4 | %67
w: * gi- mus|ti-|bi|||Do\-|* mi- ne De- us,|Rex coe- le-|
 C,2 (C,3 D,E,F, | G,2 G,2 (D,3 C, | D,E,F,G, A,2) A,2- | A,2 ^G,2 A,4 | F,4 E,2 E,2- | %72
w: stis, De\- * * *|* us Pa\- *|* * * * * ter|* om- ni-|po- tens. Do\-|
 E,E, E,2 A,2 D,2 | E,3 F, G,2 G,,2 | C,4 C,2 G,,2 | A,,8 | E,8 | z8 | z2 A,3 A, ^G,2 | %79
w: * mi- ne Fi- li|u- ni- ge- ni-|te Je- su|Chri-|ste;||Fi- li- us|
 A,A,,C,A,, D,2 E,2 | A,,2 A,4 G,2 | F,3 E, D,4) | !fermata!E,8 || z8 | E,8 | C,8 | %86
w: Pa\- * * * * *|||tris.||Qui|tol-|
 A,,4 A,,2 A,2- | A,2 G,2 F,4 | E,4 z4 | z8 | z4 E,4 | C,4 A,,2 A,,2 | (D,3 C, B,,2) G,,2 | %93
w: lis pec- ca\-|* ta mun-|di;||qui|tol- lis pec-|ca\- * * ta|
 (C,3 B,, A,,4) | E,2 E,4 E,2 | A,,2 A,4 A,2 | D,4 G,4- | G,2 F,2 E,2 D,2 | (C,3 B,, A,,G,, F,,2- | %99
w: mun\- * *|di, su- sci-|pe, su- sci-|pe de\-|* pre- ca- ti-|o\- * * * *|
 F,,2) E,,2 G,,4- | G,,4 C,4- | C,4 z4 | z8 | z4 E,3 E, | F,2 D,2 (E,3 D, | C,A,, A,4 ^G,2) | %106
w: * nem no\-|* stram;|||mi- se-|re- re no\- *||
 A,2 A,4 A,2 | D,8 | z2 G,2 A,2 B,2 | (C3 B, A,2 G,2) | F,6 C,2 | (D,E,F,G, A,4) | %112
w: bis. Quo- ni-|am|tu so- lus|san\- * * *|ctus, tu|so\- * * * *|
 E,2 E,2 F,2 D,2 | E,6 E,2 | A,,4 z4 | z8 | z2 A,4 G,2 | F,8 | E,8 | z8 | z8 | z8 | z8 | (A,4 G,4 | %124
w: lus, tu so- lus|Do- mi-|nus,||Je- su|Chri-|ste,|||||A\- *|
 F,4 E,4 | D,2 ^C,2 D,4) | E,2 E,2 A,2 F,2 | G,2 E,2 F,2 D,2 | E,2 C,C, D,2 B,,2 | %129
w: ||men, cum San- cto|Spi- ri- tu, in|glo- ri- a De- i|
 C,2 A,,2 (B,,2 E,2) | A,,4 (E,4 | D,4 C,4 | B,,4 A,,2 ^G,,2 | A,,8) | !fermata!E,8 ||[M:2/2] z8 | %136
w: Pa- tris, A\- *|men, A\-||||men.||
 (E,4 F,3) F, | E,2 A,2 F,2 G,2 | (A,G,) (F,E,/F,/) (G,F,) (E,D,) | C,4 (E,4 | F,3) F, E,2 E,2 | %141
w: Ky\- * ri-|e e- le- i-|son, * e\- * * le\- * i\- *|son, Ky\-|* ri- e e-|
 (C,2 D,2 E,D,C,B,,/C,/ | A,,2 B,,2 C,3) C, | B,,2 E,4 C,2 | D,2 (E,3 D,C,B,, | %145
w: le\- * * * * * *|* * * i-|son, Ky- ri-|e e\- * * *|
 A,,2 ^G,,2) A,,3 A,, | !fermata!E,8 |]"^Credo" B,2 ^G,2 A,2 ^F,2 G,2 B,2 ^C4 ||[M:2/2] E,8 | %149
w: * * le- i-|son.|Cre- do in u- num De- um:|Pa-|
 E,6 E,2 | ^D,2 E,2 A,,4 | E,6 E,2 | A,2 G,2 C4 | G,2 A,2 E,4 | A,,2 A,3 A,A,A, | D,2 D,4 D,2 | %156
w: ter om-|ni- po- ten-|tem, fa-|cto- rem coe-|li et ter-|rae, vi- si- bi- li-|um om- ni-|
 G,2 G,3 G,G,G, | C,6 C,2 | G,2 G,3 G,G,G, | C3 C G,2 A,2- | A,2 E,2 F,4 | E,2 E,3 E, E,2 | %162
w: um et in- vi- si-|bi- li-|um; et in u- num|Do- mi- num Je\-|* sum Chri-|stum, Fi- li- um|
 A,,4 D,2 D,2- | D,2 F,2 E,3 E, | A,,2 A,,3 A,,A,,A,, | E,4 E,2 C,2- | C,C,C,C, G,3 G, | %167
w: De- i u\-|* ni- ge- ni-|tum et ex Pa- tre|na- tum, na\-|* tum an- te o- mni-|
 A,4 F,3 F, | E,4 z4 | z4 z2 E,2 | ^F,2 G,2 A,2 B,2 | E,2 C,4 C,2 | G,4 G,4 | D,2 D,4 D,2 | %174
w: a sae- cu-|la.|Lu-|men de lu- mi-|ne, De- um|ve- rum|de De- o|
 (A,6 G,2 | F,8) | E,2 E,4 E,2 | A,2 ^G,2 A,4 | E,8 | z8 | z8 | A,,6 B,,2 | C,3 B,, A,,2 (D,2- | %183
w: ve\- *||ro; ge- ni-|tum non fa-|ctum,|||Per quem|o- mni- a fa\-|
 D,C, C,B,,/A,,/ B,,3) B,, | A,,8 | z8 | z2 A,,2 D,2 C,2 | F,4 C,4- | C,2 D,2 (E,2 F,2- | %189
w: * * * * * * cta|sunt.||et pro- pter|no- stram|* sa- lu\- *|
 F,2 E,2 D,4) | C,6 C,2 | C,4 C,2 D,2 | (C,2 B,,2 C,3 B,, | A,,8) | !fermata!E,8 || E,8 | %196
w: |tem de-|scen- dit de|coe\- * * *||lis.|Et|
 A,6 ^G,2 | A,4 D,4 | E,8 | z2 C,2 C,4 | G,,2 A,,2 F,,4 | E,,2 E,4 E,2 | E,4 A,,4 | D,6 D,2 | %204
w: in- car-|na- tus|est|de Spi-|ri- tu San-|cto ex Ma-|ri- a|Vir- gi-|
 D,4 D,4 | G,4 E,4 | (A,6 G,2 | F,6) F,2 | E,8 || z2 E,4 ^D,2 | E,4 B,,4 | z2 E,4 ^D,2 | %212
w: ne et|ho- mo|fa\- *|* ctus|est.|Cru- ci-|fi- xus|e- ti-|
 (E,2 ^F,2 G,3) A, | (B,2 B,,2) E,4- | E,2 E,2 F,2 E,2 | D,2 C,2 B,,4 | A,,8 | z2 A,4 ^G,2 | %218
w: am * * pro|no\- * bis|* sub Pon- ti-|o Pi- la-|to;|pas- sus|
 A,4 E,4 | (F,3 E, D,2) A,,2 | D,8 | E,8 | F,6 F,2 | !fermata!E,8 ||[M:3/2] E,4 E,4 E,4 | A,8 A,4 | %226
w: et se-|pul\- * * tus,|et|se-|pul- tus|est.|Et re- sur-|re- xit|
 G,6 G,2 G,4 | C4 C4 E,4 | F,4 G,4 A,4 | G,12 | C,12 | z4 C,4 D,4 | E,4 E,4 F,4 | G,4 G,4 z4 | %234
w: ter- ti- a|di- e se-|cun- dum scri-|ptu-|ras,|et a-|scen- dit in|coe- lum;|
[M:3/2] D,4 D,4 E,4 | F,6 E,2 F,2 G,2 | A,6 A,2 A,4 | A,,4 A,,4 B,,4 | C,6 C,2 D,4- | D,4 E,8 | %240
w: se- det ad|de- xte- ram, ad|de- xte- ram|Pa- tris, ad|de- xte- ram|* Pa-|
 A,,8 A,4 | ^F,6 E,2 D,4 | G,4 G,4 F,4 | E,8 D,4 | C,6 C,2 C,4 | F,6 F,2 F,2 E,2 | D,4 D,4 z4 | %247
w: tris; et|i- te- rum|ven- tu- rus|est cum|glo- ri- a|ju- di- ca- re|vi- vos|
 G,6 G,2 G,2 F,2 | E,4 E,4 A,,4- | A,,4 B,,6 B,,2 | E,4 E,4 E,4 | A,4 A,4 G,4 | C4 C4 C,4 | %253
w: ju- di- ca- re|vi- vos et|* mor- tu-|os cu- jus|re- gni non|e- rit, non|
 D,8 E,4 | (E,4 F,8) | E,8 C,4 | D,8 A,,4- | A,,4 E,8 | A,,12 ||[M:2/2] z8 | z8 | z4 z2 D,2 | %262
w: e- rit|fi\- *|nis, non|e- rit|* fi-|nis.|||Et|
 E,2 G,4 F,2 | E,4 D,4 | E,2 C,2 G,4 |[M:2/2] A,4 G,2 G,2 | G,2 ^F,2 (G,2 E,2) | (^F,2 G,4 F,2) | %268
w: vi- vi- fi-|can- tem,|qui ex Pa-|tre Fi- li-|o- que pro\- *|ce\- * *|
 G,2 G,4 G,2 | C4 G,2 E,2 | F,2 D,2 E,2 C,2- | C,2 C,2 D,4 | E,4 F,4 | E,6 C,2 | C,2 C,2 D,2 D,2 | %275
w: dit. Qui cum|Pa- tre et|Fi- li- o si\-|* mul a-|do- ra-|tur et|con- glo- ri- fi-|
 (E,4 F,4) | E,2 E,4 C,2 | D,2 B,,2 A,,2 A,2- | A,2 G,2 F,4 | E,4 z4 | z8 | C,4 C,2 C,2 | %282
w: ca\- *|tur, qui lo-|cu- tus est per|* Pro- phe-|tas;||et u- nam|
 D,4 E,2 E,2 | F,3 F, E,4 | z2 A,2 A,2 ^G,2 | A,3 B, C2 B,2- | B,2 A,4 ^G,2 | A,2 A,2 F,3 F, | %288
w: San- ctam Ca-|tho- li- cam|et A- po-|sto- li- cam Ec\-|* cle- si-|am. Con- fi- te-|
 F,2 F,2 C,3 C, | C,2 C,2 D,2 E,2 | F,4 E,2 E,2- | E,E,E,E, A,2 D,2 | E,3 F, G,4 | C,2 C4 B,2 | %294
w: or, con- fi- te-|or u- num Ba-|pti- sma in|* re- mis- si- o- nem|pec- ca- to-|rum, et ex-|
 C4 G,4 | z2 C4 B,2 | C2 C,2 G,4 | C,4 z4 | z2 A,4 ^G,2 | A,2 F,2 E,3 D, | C,2 D,2 (B,,4 | %301
w: pe- cto|re- sur-|re- cti- o-|nem,|re- sur-|re- cti- o- nem|mor- tu- o\-|
 A,,3 B,, C,2 D,2) | E,8 | z8 | z4 z2 E,2 | F,4 E,2 C,2 | D,2 E,2 (A,,B,,C,D, | E,F,G,E, F,2 G,2) | %308
w: |rum||et|vi- tam ven-|tu- ri sae\- * * *||
 (C,D,E,F, G,4) | z4 z2 C,2 | F,2 D,2 (E,3 F, | G,2) G,,2 C,2 (A,2 | D,2 G,2 C,3 D, | %313
w: li, * * * *|ven-|tu- ri sae\- *|* cu- li. A\-||
 E,F,G,E, F,2 D,2 | E,3 F, G,4) | C,2 (A,,2 D,2 G,,2 | C,3 B,, A,,B,,C,D, | E,4 A,,2 ^G,,2 | %318
w: ||men, A\- * *|||
 A,,8) | !fermata!E,8 |][M:2/2] z8 | z8 | z8 | (A,,3 B,, C,A,,C,D, | E,8) | A,,8 |[M:3/4] z4 z2 | %327
w: |men.||||San\- * * * * *||ctus||
 A,,3 A,, A,,2 | D,4 A,,2- | A,,2 (B,,3 C, |[M:2/2] D,2) D,2 G,,2 G,2- | G,2 G,2 (CC,E,C,) | %332
w: Do- mi- nus|De- us|* Sa\- *|* ba- oth. Ple\-|* ni sunt * * *|
 G,2 E,E, (A,3 G, |[M:2/2] F,8 | E,2 E,3 E, E,2 |[M:3/4] (A,,B,,C,D,) E,2- | E,6 | z4 z2 | %338
w: coe- li et ter\- *||ra glo- ri- a|tu\- * * * a.|||
 E,2 A,2 A,2 |[M:2/2] G,2 E,2 F,4 | C,2 C,2 D,E,F,G, | A,4) E,4 | F,2 C,2 (D,2 C,B,, | %343
w: Ho- san- na|in ex- cel-|sis, ho- san\- * * *|* na|in ex- cel\- * *|
 A,,3 B,, C,2 A,,2) | E,8 |][M:2/2] A,6 ^G,2 | A,4 E,2 E,2 | F,4 E,2 C,2 | D,2 E,2 A,,2 (A,2- | %349
w: |sis.|Be- ne-|di- ctus qui|ve- nit in|no- mi- ne Do\-|
 A,2 G,2 F,3) F, | E,2 E,2 A,2 A,2 | G,2 E,2 F,4 | C,4 (D,E,F,G, | A,4) E,4 | (F,2 C,2 D,2 C,B,, | %355
w: * * * mi-|ni. Ho- san- na|in ex- cel-|sis, in * * *|* ex-|cel\- * * * *|
 A,,3 B,, C,2 A,,2) | E,8 |][M:2/2] z4 A,4- | A,2 G,2 (C4 | B,4 A,3 G, | F,4 E,3 D, | %361
w: |sis.|A\-|* gnus De\-|||
 C,A,, A,4 ^G,2) | A,2 A,2 F,4 | F,2 C,2 D,2 E,2 |[M:2/2] F,4 E,2 E,2- | E,2 C,2 D,2 E,2 | %366
w: |i, qui tol-|lis pec- ca- ta|mun- di, mi\-|* se- re- re|
 (A,,B,,C,D,) E,2 E,2- | E,2 A,2 G,4 | G,2 G,2 (CC,E,F,) | G,8 | z4 z2 B,,2- | B,,2 B,,2 (E,3 D, | %372
w: no\- * * * bis. A\-|* gnus De-|i, qui tol\- * * *|lis,|do\-|* na no\- *|
 C,2 B,,2 A,,2) ^G,,2 | (A,,4 E,2 A,2- | A,2 ^G,2 A,2 E,2 | A,,8) | E,8 |] %377
w: * * * bis|pa\- * *|||cem.|

